X: 63
T:Orphan, The
M:6/8
L:1/8
R:jig
K:Am
E|""ABE AGE|cBc dcd|ege ded|cAB AGE|D2(A A)GE|cBc dcd|ege ded|1cAG AcB
:|2cAG A2 (a
|:a)ba ged|cde geg|aba ged|ecA GEG|Adc AGE|cBc d2 d|ege ded|1cAG A2 a:|c
ag ac""B||
